X:69
T:New Spring garden Hornpipe. ThoH.069
Q:1/2=90
M:C
L:1/8
B:Thompson's Compleat Collection of 120 Favourite Hornpipes.
Z:Village Music Project, Simon Wilson 2016
O:England.
K:C
c2(eg) (fe)(dc)|(d/e/f) Ad {c}B2AG|c2Ged2Gf|(e/f/g) fe{f}e2d2|
c2(eg) (fe)(dc)|(d/e/f) Ad{c}B2AG|c2Ged2Gf|(e/f/g) GBc2C2:|
|:G2EG cGec|dBAG (^F/G/A) DC|B,2dB,C2ec|(B/c/d) D^FG2G,2|
c2(eg) (fe)(Tdc)|(d/e/f) Ad {c}B2AG|c2Ged2Gf|(e/f/g) GBc2C2:|
|:(c'e)(c'e) (c'e)(fa)|(ge)(dc) (B/c/d) GF|E2gEF2af|(e/f/g) GBc2C2:|

